flaticon/household/plant.svg

<svg xmlns="http://www.w3.org/2000/svg" width="32" height="32" viewBox="0 0 24 24">
    <path d="M 13.199219 14.800781 C 13.253906 14.800781 13.304688 14.789062 13.351562 14.769531 C 13.402344 14.75 13.445312 14.71875 13.484375 14.683594 L 14.5 13.667969 C 14.816406 13.875 15.191406 14 15.601562 14 C 16.703125 14 17.601562 13.101562 17.601562 12 C 17.601562 10.898438 16.703125 10 15.601562 10 C 14.496094 10 13.601562 10.898438 13.601562 12 C 13.601562 12.40625 13.722656 12.785156 13.933594 13.101562 L 13.035156 14 L 12.398438 14 L 12.398438 10.398438 L 13.199219 10.398438 C 13.253906 10.398438 13.304688 10.390625 13.351562 10.371094 C 13.402344 10.347656 13.445312 10.320312 13.484375 10.28125 L 14.5 9.265625 C 14.816406 9.476562 15.191406 9.601562 15.601562 9.601562 C 16.703125 9.601562 17.601562 8.703125 17.601562 7.601562 C 17.601562 6.496094 16.703125 5.601562 15.601562 5.601562 C 14.496094 5.601562 13.601562 6.496094 13.601562 7.601562 C 13.601562 8.007812 13.722656 8.386719 13.933594 8.703125 L 13.035156 9.601562 L 12.398438 9.601562 L 12.398438 5.566406 C 13.753906 5.371094 14.800781 4.207031 14.800781 2.800781 C 14.800781 1.257812 13.542969 0 12 0 C 10.457031 0 9.199219 1.257812 9.199219 2.800781 C 9.199219 4.207031 10.246094 5.371094 11.601562 5.566406 L 11.601562 8.800781 L 10.964844 8.800781 L 10.066406 7.902344 C 10.277344 7.585938 10.398438 7.207031 10.398438 6.800781 C 10.398438 5.695312 9.503906 4.800781 8.398438 4.800781 C 7.296875 4.800781 6.398438 5.695312 6.398438 6.800781 C 6.398438 7.902344 7.296875 8.800781 8.398438 8.800781 C 8.808594 8.800781 9.183594 8.675781 9.5 8.46875 L 10.515625 9.480469 C 10.554688 9.519531 10.597656 9.546875 10.648438 9.570312 C 10.695312 9.589844 10.746094 9.601562 10.800781 9.601562 L 11.601562 9.601562 L 11.601562 13.601562 L 10.964844 13.601562 L 10.066406 12.703125 C 10.277344 12.386719 10.398438 12.007812 10.398438 11.601562 C 10.398438 10.496094 9.503906 9.601562 8.398438 9.601562 C 7.296875 9.601562 6.398438 10.496094 6.398438 11.601562 C 6.398438 12.703125 7.296875 13.601562 8.398438 13.601562 C 8.808594 13.601562 9.183594 13.476562 9.5 13.265625 L 10.515625 14.28125 C 10.554688 14.320312 10.597656 14.347656 10.648438 14.371094 C 10.695312 14.390625 10.746094 14.398438 10.800781 14.398438 L 11.601562 14.398438 L 11.601562 15.199219 L 6.800781 15.199219 L 6.800781 18.398438 L 7.710938 18.398438 L 9.558594 24 L 14.445312 24 L 16.289062 18.398438 L 17.199219 18.398438 L 17.199219 15.199219 L 12.398438 15.199219 L 12.398438 14.800781 Z M 14.398438 12 C 14.398438 11.339844 14.9375 10.800781 15.601562 10.800781 C 16.261719 10.800781 16.800781 11.339844 16.800781 12 C 16.800781 12.660156 16.261719 13.199219 15.601562 13.199219 C 15.414062 13.199219 15.242188 13.15625 15.085938 13.078125 L 15.484375 12.683594 C 15.640625 12.527344 15.640625 12.273438 15.484375 12.117188 C 15.328125 11.960938 15.074219 11.960938 14.917969 12.117188 L 14.519531 12.515625 C 14.445312 12.359375 14.398438 12.183594 14.398438 12 Z M 14.398438 7.601562 C 14.398438 6.9375 14.9375 6.398438 15.601562 6.398438 C 16.261719 6.398438 16.800781 6.9375 16.800781 7.601562 C 16.800781 8.261719 16.261719 8.800781 15.601562 8.800781 C 15.414062 8.800781 15.242188 8.753906 15.085938 8.679688 L 15.484375 8.28125 C 15.640625 8.125 15.640625 7.875 15.484375 7.71875 C 15.328125 7.5625 15.074219 7.5625 14.917969 7.71875 L 14.519531 8.113281 C 14.445312 7.957031 14.398438 7.785156 14.398438 7.601562 Z M 8.398438 8 C 7.738281 8 7.199219 7.460938 7.199219 6.800781 C 7.199219 6.136719 7.738281 5.601562 8.398438 5.601562 C 9.0625 5.601562 9.601562 6.136719 9.601562 6.800781 C 9.601562 6.984375 9.554688 7.15625 9.480469 7.3125 L 9.082031 6.917969 C 8.925781 6.761719 8.671875 6.761719 8.515625 6.917969 C 8.359375 7.074219 8.359375 7.328125 8.515625 7.484375 L 8.914062 7.878906 C 8.757812 7.953125 8.585938 8 8.398438 8 Z M 8.398438 12.800781 C 7.738281 12.800781 7.199219 12.261719 7.199219 11.601562 C 7.199219 10.9375 7.738281 10.398438 8.398438 10.398438 C 9.0625 10.398438 9.601562 10.9375 9.601562 11.601562 C 9.601562 11.785156 9.554688 11.957031 9.480469 12.113281 L 9.082031 11.71875 C 8.925781 11.5625 8.671875 11.5625 8.515625 11.71875 C 8.359375 11.875 8.359375 12.125 8.515625 12.28125 L 8.914062 12.679688 C 8.757812 12.753906 8.585938 12.800781 8.398438 12.800781 Z M 13.863281 23.199219 L 10.136719 23.199219 L 8.554688 18.398438 L 15.445312 18.398438 Z M 16.398438 17.601562 L 7.601562 17.601562 L 7.601562 16 L 16.398438 16 Z M 10 2.800781 C 10 1.695312 10.898438 0.800781 12 0.800781 C 13.101562 0.800781 14 1.695312 14 2.800781 C 14 3.765625 13.3125 4.574219 12.398438 4.757812 L 12.398438 3.199219 C 12.398438 2.980469 12.222656 2.800781 12 2.800781 C 11.777344 2.800781 11.601562 2.980469 11.601562 3.199219 L 11.601562 4.757812 C 10.6875 4.574219 10 3.765625 10 2.800781 Z M 10 2.800781"/>
    <path d="M10 19.601562L12.398438 19.601562C12.621094 19.601562 12.800781 19.421875 12.800781 19.199219 12.800781 18.980469 12.621094 18.800781 12.398438 18.800781L10 18.800781C9.777344 18.800781 9.601562 18.980469 9.601562 19.199219 9.601562 19.421875 9.777344 19.601562 10 19.601562zM13.601562 19.601562C13.703125 19.601562 13.808594 19.554688 13.882812 19.484375 13.957031 19.40625 14 19.304688 14 19.199219 14 19.089844 13.957031 18.988281 13.882812 18.914062 13.734375 18.769531 13.46875 18.769531 13.316406 18.914062 13.242188 18.992188 13.199219 19.089844 13.199219 19.199219 13.199219 19.304688 13.242188 19.40625 13.316406 19.484375 13.390625 19.554688 13.496094 19.601562 13.601562 19.601562zM12 20L11.199219 20C10.980469 20 10.800781 20.179688 10.800781 20.398438 10.800781 20.621094 10.980469 20.800781 11.199219 20.800781L12 20.800781C12.222656 20.800781 12.398438 20.621094 12.398438 20.398438 12.398438 20.179688 12.222656 20 12 20zM9.714844 20.117188C9.644531 20.191406 9.601562 20.296875 9.601562 20.398438 9.601562 20.507812 9.644531 20.609375 9.714844 20.683594 9.792969 20.757812 9.894531 20.800781 10 20.800781 10.105469 20.800781 10.207031 20.757812 10.28125 20.683594 10.355469 20.609375 10.398438 20.507812 10.398438 20.398438 10.398438 20.296875 10.355469 20.191406 10.285156 20.117188 10.136719 19.96875 9.863281 19.96875 9.714844 20.117188zM9.714844 20.117188"/>
</svg>

<svg xmlns="http://www.w3.org/2000/svg" width="32" height="32" viewBox="0 0 24 24">
    <path d="M13.2 14.8a.432.432 0 0 0 .285-.117l1.015-1.015a2 2 0 0 0 1.102.332c1.101 0 2-.898 2-2 0-1.102-.899-2-2-2a2.001 2.001 0 0 0-1.668 3.102l-.899.898h-.637v-3.602h.801a.391.391 0 0 0 .285-.117L14.5 9.266c.316.21.691.336 1.102.336 1.101 0 2-.899 2-2a1.999 1.999 0 1 0-3.668 1.102l-.899.898h-.637V5.566a2.802 2.802 0 0 0 2.403-2.765C14.8 1.258 13.543 0 12 0a2.806 2.806 0 0 0-2.8 2.8 2.802 2.802 0 0 0 2.402 2.766v3.235h-.637l-.899-.899a1.999 1.999 0 1 0-.566.566l1.016 1.012a.393.393 0 0 0 .285.121h.8v4h-.636l-.899-.898a1.999 1.999 0 1 0-1.668.898c.41 0 .786-.124 1.102-.335l1.016 1.015c.039.04.082.067.132.09.047.02.098.027.153.027h.8v.801h-4.8v3.2h.91L9.559 24h4.886l1.844-5.602h.91V15.2h-4.8v-.398zm1.198-2.8a1.202 1.202 0 0 1 2.402 0c0 .66-.538 1.2-1.198 1.2a1.14 1.14 0 0 1-.516-.122l.398-.394a.4.4 0 0 0-.566-.567l-.398.399a1.206 1.206 0 0 1-.122-.516zm0-4.398a1.203 1.203 0 0 1 2.402 0c0 .66-.538 1.199-1.198 1.199-.188 0-.36-.047-.516-.121l.398-.399a.396.396 0 0 0 0-.562.4.4 0 0 0-.566 0l-.398.394a1.188 1.188 0 0 1-.122-.511zm-6 .398a1.2 1.2 0 1 1 0-2.398A1.2 1.2 0 0 1 9.602 6.8c0 .183-.047.355-.122.511l-.398-.394a.4.4 0 0 0-.566.566l.398.395A1.192 1.192 0 0 1 8.398 8zm0 4.8a1.202 1.202 0 0 1 0-2.402c.665 0 1.204.54 1.204 1.204 0 .183-.047.355-.122.511l-.398-.394a.4.4 0 0 0-.566 0 .396.396 0 0 0 0 .562l.398.399a1.192 1.192 0 0 1-.516.12zm5.465 10.4h-3.726l-1.582-4.802h6.89zm2.535-5.598H7.602V16h8.796zM10 2.8c0-1.106.898-2 2-2a1.999 1.999 0 1 1 .398 3.957V3.199a.398.398 0 1 0-.796 0v1.559A1.999 1.999 0 0 1 10 2.8zm0 0"/>
    <path d="M10 19.602h2.398a.401.401 0 0 0 0-.8L10 18.8a.398.398 0 0 0-.398.398c0 .223.175.403.398.403zm0 0M13.602 19.602a.424.424 0 0 0 .28-.118A.416.416 0 0 0 14 19.2c0-.11-.043-.21-.117-.285a.424.424 0 0 0-.567 0 .409.409 0 0 0-.117.285c0 .106.043.207.117.285.075.07.18.118.286.118zm0 0M12 20h-.8a.4.4 0 0 0 0 .8h.8c.223 0 .398-.179.398-.402A.398.398 0 0 0 12 20zm0 0M9.715 20.117a.42.42 0 0 0-.113.281c0 .11.043.211.113.286a.4.4 0 0 0 .684-.285.42.42 0 0 0-.114-.282.42.42 0 0 0-.57 0zm0 0"/>
</svg>
